image_project/consultation-icon.svg

<svg width="68" height="95" viewBox="0 0 68 95" fill="none" xmlns="http://www.w3.org/2000/svg">
<g clip-path="url(#clip0)">
<path d="M64.9697 0H2.32971C1.04143 0 0 1.02822 0 2.30017V92.7074C0 93.9794 1.04143 95.0076 2.32971 95.0076H64.9697C66.258 95.0076 67.2994 93.9794 67.2994 92.7074V2.30017C67.2917 1.02822 66.2502 0 64.9697 0Z" fill="url(#paint0_linear)"/>
<path d="M60.858 4.09766H6.43371C5.184 4.09766 4.16571 5.10303 4.16571 6.34451V81.0923C4.16571 82.3338 5.184 83.3316 6.43371 83.3316H60.858C62.1154 83.3316 63.126 82.3262 63.126 81.0923V6.34451C63.126 5.10303 62.1154 4.09766 60.858 4.09766Z" fill="white"/>
<path d="M44.7737 39.636H22.5257C21.5074 39.636 20.682 38.8211 20.682 37.8157V15.8422C20.682 14.8369 21.5074 14.0219 22.5257 14.0219H44.7737C45.792 14.0219 46.6174 14.8369 46.6174 15.8422V37.8081C46.6174 38.8135 45.792 39.636 44.7737 39.636Z" fill="url(#paint1_linear)"/>
<path d="M33.6497 92.5475C35.5413 92.5475 37.0748 91.0335 37.0748 89.1658C37.0748 87.2981 35.5413 85.7841 33.6497 85.7841C31.758 85.7841 30.2245 87.2981 30.2245 89.1658C30.2245 91.0335 31.758 92.5475 33.6497 92.5475Z" fill="white"/>
<path d="M53.0357 51.015H14.256C13.2763 51.015 12.474 50.2229 12.474 49.2556C12.474 48.2883 13.2763 47.4962 14.256 47.4962H53.028C54.0077 47.4962 54.81 48.2883 54.81 49.2556C54.81 50.2229 54.0154 51.015 53.0357 51.015Z" fill="url(#paint2_linear)"/>
<path opacity="0.6" d="M46.4708 60.764H13.608C12.9831 60.764 12.4817 60.2613 12.4817 59.652V59.5302C12.4817 58.9132 12.9909 58.4182 13.608 58.4182H46.4708C47.0957 58.4182 47.5971 58.9208 47.5971 59.5302V59.652C47.6048 60.2613 47.0957 60.764 46.4708 60.764Z" fill="url(#paint3_linear)"/>
<path opacity="0.3" d="M40.2146 66.9562H13.5C12.9369 66.9562 12.474 66.4992 12.474 65.9432V65.6081C12.474 65.0521 12.9369 64.5951 13.5 64.5951H40.2068C40.77 64.5951 41.2328 65.0521 41.2328 65.6081V65.9432C41.2328 66.4992 40.77 66.9562 40.2146 66.9562Z" fill="url(#paint4_linear)"/>
<path opacity="0.6" d="M43.578 72.6914H13.5617C12.9677 72.6914 12.4817 72.2116 12.4817 71.6251V71.4119C12.4817 70.8254 12.9677 70.3456 13.5617 70.3456H43.578C44.172 70.3456 44.658 70.8254 44.658 71.4119V71.6251C44.658 72.204 44.172 72.6914 43.578 72.6914Z" fill="url(#paint5_linear)"/>
<path d="M33.7166 26.1208C35.9441 26.1208 37.7498 24.3141 37.7498 22.0854C37.7498 19.8566 35.9441 18.05 33.7166 18.05C31.489 18.05 29.6833 19.8566 29.6833 22.0854C29.6833 24.3141 31.4805 26.1208 33.7166 26.1208ZM33.7166 28.1385C31.0249 28.1385 25.65 29.4892 25.65 32.1739V33.1869C25.65 33.7441 26.1056 34.2 26.6625 34.2H40.7875C41.3444 34.2 41.8 33.7441 41.8 33.1869V32.1739C41.7831 29.4977 36.4082 28.1385 33.7166 28.1385Z" fill="white"/>
</g>
<defs>
<linearGradient id="paint0_linear" x1="4.07698" y1="45.0301" x2="67.3445" y2="50.4539" gradientUnits="userSpaceOnUse">
<stop stop-color="#6CBCFC"/>
<stop offset="1" stop-color="#458DFC"/>
</linearGradient>
<linearGradient id="paint1_linear" x1="18.6708" y1="19.2924" x2="48.4654" y2="34.6685" gradientUnits="userSpaceOnUse">
<stop stop-color="#B0F4FF"/>
<stop offset="0.0856277" stop-color="#A3F0FE"/>
<stop offset="0.2972" stop-color="#8AE7FD"/>
<stop offset="0.5161" stop-color="#77E1FD"/>
<stop offset="0.7451" stop-color="#6DDDFC"/>
<stop offset="1" stop-color="#69DCFC"/>
</linearGradient>
<linearGradient id="paint2_linear" x1="54.8137" y1="49.257" x2="12.4813" y2="49.257" gradientUnits="userSpaceOnUse">
<stop stop-color="#6CBCFC"/>
<stop offset="1" stop-color="#458DFC"/>
</linearGradient>
<linearGradient id="paint3_linear" x1="47.6026" y1="59.5877" x2="12.4813" y2="59.5877" gradientUnits="userSpaceOnUse">
<stop stop-color="#6CBCFC"/>
<stop offset="1" stop-color="#458DFC"/>
</linearGradient>
<linearGradient id="paint4_linear" x1="41.2336" y1="65.7799" x2="12.4813" y2="65.7799" gradientUnits="userSpaceOnUse">
<stop stop-color="#6CBCFC"/>
<stop offset="1" stop-color="#458DFC"/>
</linearGradient>
<linearGradient id="paint5_linear" x1="44.6574" y1="71.5124" x2="12.4813" y2="71.5124" gradientUnits="userSpaceOnUse">
<stop stop-color="#6CBCFC"/>
<stop offset="1" stop-color="#458DFC"/>
</linearGradient>
<clipPath id="clip0">
<rect width="67.2917" height="95" fill="white"/>
</clipPath>
</defs>
</svg>

<svg width="68" height="95" fill="none" xmlns="http://www.w3.org/2000/svg"><g clip-path="url(#clip0)"><path d="M64.97 0H2.33C1.04 0 0 1.028 0 2.3v90.407c0 1.272 1.041 2.3 2.33 2.3h62.64c1.288 0 2.33-1.028 2.33-2.3V2.3A2.323 2.323 0 0064.97 0z" fill="url(#paint0_linear)"/><path d="M60.858 4.098H6.434c-1.25 0-2.268 1.005-2.268 2.247v74.747c0 1.242 1.018 2.24 2.268 2.24h54.424c1.257 0 2.268-1.006 2.268-2.24V6.345a2.254 2.254 0 00-2.268-2.247z" fill="#fff"/><path d="M44.774 39.636H22.526a1.832 1.832 0 01-1.844-1.82V15.842c0-1.005.825-1.82 1.844-1.82h22.248c1.018 0 1.843.815 1.843 1.82v21.966a1.838 1.838 0 01-1.843 1.828z" fill="url(#paint1_linear)"/><path d="M33.65 92.547c1.891 0 3.425-1.513 3.425-3.381 0-1.868-1.534-3.382-3.425-3.382-1.892 0-3.425 1.514-3.425 3.382s1.533 3.382 3.425 3.382z" fill="#fff"/><path d="M53.036 51.015h-38.78c-.98 0-1.782-.792-1.782-1.76 0-.967.802-1.759 1.782-1.759h38.772c.98 0 1.782.792 1.782 1.76a1.77 1.77 0 01-1.774 1.759z" fill="url(#paint2_linear)"/><path opacity=".6" d="M46.47 60.764H13.609a1.12 1.12 0 01-1.126-1.112v-.122c0-.617.509-1.112 1.126-1.112h32.863a1.12 1.12 0 011.126 1.112v.122c.008.61-.501 1.112-1.126 1.112z" fill="url(#paint3_linear)"/><path opacity=".3" d="M40.215 66.956H13.5a1.024 1.024 0 01-1.026-1.013v-.335c0-.556.463-1.013 1.026-1.013h26.707c.563 0 1.026.457 1.026 1.013v.335c0 .556-.463 1.013-1.018 1.013z" fill="url(#paint4_linear)"/><path opacity=".6" d="M43.578 72.691H13.562c-.594 0-1.08-.48-1.08-1.066v-.213c0-.587.486-1.066 1.08-1.066h30.016c.594 0 1.08.48 1.08 1.066v.213c0 .579-.486 1.066-1.08 1.066z" fill="url(#paint5_linear)"/><path d="M33.717 26.12a4.034 4.034 0 004.033-4.035 4.034 4.034 0 10-8.067 0 4.029 4.029 0 004.034 4.036zm0 2.018c-2.692 0-8.067 1.351-8.067 4.036v1.013c0 .557.456 1.013 1.013 1.013h14.125c.556 0 1.012-.456 1.012-1.013v-1.013c-.017-2.676-5.392-4.035-8.083-4.035z" fill="#fff"/></g><defs><linearGradient id="paint0_linear" x1="4.077" y1="45.03" x2="67.344" y2="50.454" gradientUnits="userSpaceOnUse"><stop stop-color="#6CBCFC"/><stop offset="1" stop-color="#458DFC"/></linearGradient><linearGradient id="paint1_linear" x1="18.671" y1="19.292" x2="48.465" y2="34.669" gradientUnits="userSpaceOnUse"><stop stop-color="#B0F4FF"/><stop offset=".086" stop-color="#A3F0FE"/><stop offset=".297" stop-color="#8AE7FD"/><stop offset=".516" stop-color="#77E1FD"/><stop offset=".745" stop-color="#6DDDFC"/><stop offset="1" stop-color="#69DCFC"/></linearGradient><linearGradient id="paint2_linear" x1="54.814" y1="49.257" x2="12.481" y2="49.257" gradientUnits="userSpaceOnUse"><stop stop-color="#6CBCFC"/><stop offset="1" stop-color="#458DFC"/></linearGradient><linearGradient id="paint3_linear" x1="47.603" y1="59.588" x2="12.481" y2="59.588" gradientUnits="userSpaceOnUse"><stop stop-color="#6CBCFC"/><stop offset="1" stop-color="#458DFC"/></linearGradient><linearGradient id="paint4_linear" x1="41.234" y1="65.78" x2="12.481" y2="65.78" gradientUnits="userSpaceOnUse"><stop stop-color="#6CBCFC"/><stop offset="1" stop-color="#458DFC"/></linearGradient><linearGradient id="paint5_linear" x1="44.657" y1="71.512" x2="12.481" y2="71.512" gradientUnits="userSpaceOnUse"><stop stop-color="#6CBCFC"/><stop offset="1" stop-color="#458DFC"/></linearGradient><clipPath id="clip0"><path fill="#fff" d="M0 0h67.292v95H0z"/></clipPath></defs></svg>
